img/icon-1.svg

<svg xmlns="http://www.w3.org/2000/svg" width="80.66" height="76.98"><style>.st0{fill:#43a9ff}</style><path class="st0" d="M25.34 4.1a2.01 2.01 0 1 0 0-4.02 2.01 2.01 0 0 0 0 4.02M4.35 12.09a2.01 2.01 0 1 0 0-4.02 2.01 2.01 0 0 0 0 4.02m59 20.48a2.01 2.01 0 1 0 0 4.02 2.01 2.01 0 0 0 0-4.02M2 62.71c-1.1 0-2 .9-2 2.01 0 1.11.9 2.01 2 2.01a2.01 2.01 0 0 0 0-4.02m77.53-11.57l.62-.62a1.75 1.75 0 0 0-2.47-2.48l-.63.63-.62-.63c-.68-.68-1.79-.68-2.48 0-.68.69-.68 1.79 0 2.48l.63.62-.63.63a1.75 1.75 0 0 0 0 2.47c.35.34.8.51 1.24.51.45 0 .9-.17 1.24-.51l.62-.62.63.62a1.748 1.748 0 0 0 2.47 0c.69-.68.69-1.79 0-2.48zM20.84 21.58a2.01 2.01 0 1 0 0-4.02 2.01 2.01 0 0 0 0 4.02m46-11.5l-1.99 1.99c-.68.69-.68 1.79 0 2.48a1.748 1.748 0 0 0 2.47 0l2-2 1.99 2a1.748 1.748 0 0 0 2.47 0c.69-.69.69-1.79 0-2.48l-1.99-1.99 1.99-1.99a1.75 1.75 0 0 0-2.47-2.48L69.32 7.6l-2-1.99a1.75 1.75 0 0 0-2.47 0c-.68.69-.68 1.79 0 2.48z"/><path class="st0" d="M62.48 12.09a2.01 2.01 0 1 0 0-4.02 2.01 2.01 0 0 0 0 4.02m13.62 0a2.01 2.01 0 0 0 0-4.02c-1.1 0-2.01.9-2.01 2.01 0 1.11.91 2.01 2.01 2.01m-6.78 2.82a2.01 2.01 0 1 0 0 4.02 2.01 2.01 0 0 0 0-4.02m0-9.66a2.01 2.01 0 1 0 0-4.02 2.01 2.01 0 0 0 0 4.02M9.91 35.56c.71 0 1.27.57 1.27 1.27a1.265 1.265 0 1 1-2.53 0c0-.7.57-1.27 1.26-1.27m-1.67 8.19c0 .96.78 1.75 1.75 1.75.96 0 1.75-.79 1.75-1.75v-2.52a4.733 4.733 0 0 0 2.6-2.65h2.56c.97 0 1.75-.79 1.75-1.75 0-.97-.78-1.75-1.75-1.75h-2.56a4.78 4.78 0 0 0-2.6-2.66v-2.51c0-.97-.79-1.75-1.75-1.75-.97 0-1.75.78-1.75 1.75v2.47a4.723 4.723 0 0 0-2.75 2.7H3.07c-.97 0-1.75.78-1.75 1.75 0 .96.78 1.75 1.75 1.75h2.42a4.78 4.78 0 0 0 2.75 2.7zm44.1 28.81V55.88h10v17.51c-3.24.28-6.67-.1-10-.83m-33.21-4.85V55.88h9.9v11.41c-3.66-.15-7.03.06-9.9.42m24.38-8.37h-6c-.97 0-1.75.78-1.75 1.75v6.89c-1.1-.18-2.17-.32-3.23-.44V55.88h16.31v15.78a57.77 57.77 0 0 1-3.58-1.15v-9.42c0-.97-.78-1.75-1.75-1.75m-1.75 10.01c-.84-.25-1.67-.47-2.5-.66v-5.85h2.5zm7.08 51.97H32.53v8.04h16.31zm-13.15-13.31h9.58v9.81h-9.58zm8.57-80.49h-7.59l3.8-8.11zm28.76 41.05c-2 2.17-4.47 3.51-7.18 4.22V54.13c0-.97-.79-1.75-1.75-1.75H52.34v-9.8c0-.97-.78-1.75-1.75-1.75h-1.82V29.27c0-.28-.07-.55-.2-.79v-.01l-6.42-13.73-.01-.01V9.06h2.09c.96 0 1.75-.78 1.75-1.75s-.79-1.75-1.75-1.75h-2.09V1.74c0-.96-.78-1.74-1.75-1.74s-1.75.78-1.75 1.74v3.82h-2.08c-.97 0-1.75.78-1.75 1.75s.78 1.75 1.75 1.75h2.08v5.68c0 .09.01.18.03.26l-6.3 13.47c-.06.13-.1.26-.13.39s-.05.27-.05.41v11.56h-1.41c-.97 0-1.75.78-1.75 1.75v9.8H17.38c-.97 0-1.75.78-1.75 1.75v14.13c-3.79.7-6.19 1.53-6.44 1.62-.92.33-1.39 1.33-1.07 2.24.32.91 1.33 1.38 2.24 1.06.16-.06 16.39-5.68 33.17.43 6.2 2.25 11.77 3.37 16.63 3.37 6.5 0 11.73-2.02 15.44-6.03.65-.71.61-1.82-.1-2.48-.71-.65-1.82-.61-2.48.1"/><path class="st0" d="M40.46 33.17a2.72 2.72 0 0 0-2.71 2.72c0 1.49 1.22 2.71 2.71 2.71 1.5 0 2.71-1.22 2.71-2.71 0-1.5-1.21-2.72-2.71-2.72"/></svg>

<svg xmlns="http://www.w3.org/2000/svg" width="80.66" height="76.98" viewBox="0 0 80.66 76.98">
	<style type="text/css">
		.st0{fill:#43a9ff;}
	</style>
	<path class="st0" d="M25.34,4.1C26.45,4.1 27.35,3.2 27.35,2.09C27.35,0.98 26.45,0.08 25.34,0.08C24.23,0.08 23.33,0.98 23.33,2.09C23.33,3.2 24.23,4.1 25.34,4.1"></path>
	<path class="st0" d="M4.35,12.09C5.46,12.09 6.36,11.19 6.36,10.08C6.36,8.97 5.46,8.07 4.35,8.07C3.24,8.07 2.34,8.97 2.34,10.08C2.34,11.19 3.24,12.09 4.35,12.09"></path>
	<path class="st0" d="M63.35,32.57C62.24,32.57 61.34,33.47 61.34,34.58C61.34,35.69 62.24,36.59 63.35,36.59C64.46,36.59 65.36,35.69 65.36,34.58C65.36,33.47 64.46,32.57 63.35,32.57"></path>
	<path class="st0" d="M2,62.71C0.9,62.71 0,63.61 0,64.72C0,65.83 0.9,66.73 2,66.73C3.11,66.73 4.01,65.83 4.01,64.72C4.01,63.61 3.11,62.71 2,62.71"></path>
	<path class="st0" d="M79.53,51.14L80.15,50.52C80.84,49.83 80.84,48.73 80.15,48.04C79.47,47.36 78.36,47.36 77.68,48.04L77.05,48.67L76.43,48.04C75.75,47.36 74.64,47.36 73.95,48.04C73.27,48.73 73.27,49.83 73.95,50.52L74.58,51.14L73.95,51.77C73.27,52.45 73.27,53.56 73.95,54.24C74.3,54.58 74.75,54.75 75.19,54.75C75.64,54.75 76.09,54.58 76.43,54.24L77.05,53.62L77.68,54.24C78.02,54.58 78.47,54.75 78.91,54.75C79.36,54.75 79.81,54.58 80.15,54.24C80.84,53.56 80.84,52.45 80.15,51.76Z"></path>
	<path class="st0" d="M20.84,21.58C21.95,21.58 22.85,20.68 22.85,19.57C22.85,18.46 21.95,17.56 20.84,17.56C19.73,17.56 18.83,18.46 18.83,19.57C18.83,20.68 19.73,21.58 20.84,21.58"></path>
	<path class="st0" d="M66.84,10.08L64.85,12.07C64.17,12.76 64.17,13.86 64.85,14.55C65.19,14.89 65.64,15.06 66.09,15.06C66.53,15.06 66.98,14.89 67.32,14.55L69.32,12.55L71.31,14.55C71.65,14.89 72.1,15.06 72.55,15.06C72.99,15.06 73.44,14.89 73.78,14.55C74.47,13.86 74.47,12.76 73.78,12.07L71.79,10.08L73.78,8.09C74.47,7.4 74.47,6.3 73.78,5.61C73.1,4.93 71.99,4.93 71.31,5.61L69.32,7.6L67.32,5.61C66.64,4.93 65.53,4.93 64.85,5.61C64.17,6.3 64.17,7.4 64.85,8.09Z"></path>
	<path class="st0" d="M62.48,12.09C63.59,12.09 64.49,11.19 64.49,10.08C64.49,8.97 63.59,8.07 62.48,8.07C61.37,8.07 60.47,8.97 60.47,10.08C60.47,11.19 61.37,12.09 62.48,12.09"></path>
	<path class="st0" d="M76.1,12.09C77.21,12.09 78.11,11.19 78.11,10.08C78.11,8.97 77.21,8.07 76.1,8.07C75,8.07 74.09,8.97 74.09,10.08C74.09,11.19 75,12.09 76.1,12.09"></path>
	<path class="st0" d="M69.32,14.91C68.21,14.91 67.31,15.81 67.31,16.92C67.31,18.03 68.21,18.93 69.32,18.93C70.43,18.93 71.33,18.03 71.33,16.92C71.33,15.81 70.43,14.91 69.32,14.91"></path>
	<path class="st0" d="M69.32,5.25C70.43,5.25 71.33,4.35 71.33,3.24C71.33,2.13 70.43,1.23 69.32,1.23C68.21,1.23 67.31,2.13 67.31,3.24C67.31,4.35 68.21,5.25 69.32,5.25"></path>
	<path class="st0" d="M9.91,35.56C10.62,35.56 11.18,36.13 11.18,36.83C11.18,37.53 10.62,38.1 9.91,38.1C9.22,38.1 8.65,37.53 8.65,36.83C8.65,36.13 9.22,35.56 9.91,35.56M8.24,43.75C8.24,44.71 9.02,45.5 9.99,45.5C10.95,45.5 11.74,44.71 11.74,43.75L11.74,41.23C12.93,40.74 13.87,39.78 14.34,38.58L16.9,38.58C17.87,38.58 18.65,37.79 18.65,36.83C18.65,35.86 17.87,35.08 16.9,35.08L14.34,35.08C13.87,33.88 12.93,32.92 11.74,32.42L11.74,29.91C11.74,28.94 10.95,28.16 9.99,28.16C9.02,28.16 8.24,28.94 8.24,29.91L8.24,32.38C6.98,32.85 5.98,33.83 5.49,35.08L3.07,35.08C2.1,35.08 1.32,35.86 1.32,36.83C1.32,37.79 2.1,38.58 3.07,38.58L5.49,38.58C5.98,39.82 6.98,40.8 8.24,41.28Z"></path>
	<path class="st0" d="M52.34,72.56L52.34,55.88L62.34,55.88L62.34,73.39C59.1,73.67 55.67,73.29 52.34,72.56M19.13,67.71L19.13,55.88L29.03,55.88L29.03,67.29C25.37,67.14 22,67.35 19.13,67.71M43.51,59.34L37.51,59.34C36.54,59.34 35.76,60.12 35.76,61.09L35.76,67.98C34.66,67.8 33.59,67.66 32.53,67.54L32.53,55.88L48.84,55.88L48.84,71.66C47.61,71.31 46.41,70.92 45.26,70.51L45.26,61.09C45.26,60.12 44.48,59.34 43.51,59.34M41.76,69.35C40.92,69.1 40.09,68.88 39.26,68.69L39.26,62.84L41.76,62.84ZM48.84 121.32L32.53 121.32L32.53 129.36L48.84 129.36ZM35.69 108.01L45.27 108.01L45.27 117.82L35.69 117.82ZM44.26,27.52L36.67,27.52L40.47,19.41ZM73.02,68.57C71.02,70.74 68.55,72.08 65.84,72.79L65.84,54.13C65.84,53.16 65.05,52.38 64.09,52.38L52.34,52.38L52.34,42.58C52.34,41.61 51.56,40.83 50.59,40.83L48.77,40.83L48.77,29.27C48.77,28.99 48.7,28.72 48.57,28.48C48.57,28.48 48.57,28.47 48.57,28.47L42.15,14.74C42.15,14.74 42.14,14.73 42.14,14.73L42.14,9.06L44.23,9.06C45.19,9.06 45.98,8.28 45.98,7.31C45.98,6.34 45.19,5.56 44.23,5.56L42.14,5.56L42.14,1.74C42.14,0.78 41.36,0 40.39,0C39.42,0 38.64,0.78 38.64,1.74L38.64,5.56L36.56,5.56C35.59,5.56 34.81,6.34 34.81,7.31C34.81,8.28 35.59,9.06 36.56,9.06L38.64,9.06L38.64,14.74C38.64,14.83 38.65,14.92 38.67,15L32.37,28.47C32.31,28.6 32.27,28.73 32.24,28.86C32.21,28.99 32.19,29.13 32.19,29.27L32.19,40.83L30.78,40.83C29.81,40.83 29.03,41.61 29.03,42.58L29.03,52.38L17.38,52.38C16.41,52.38 15.63,53.16 15.63,54.13L15.63,68.26C11.84,68.96 9.44,69.79 9.19,69.88C8.27,70.21 7.8,71.21 8.12,72.12C8.44,73.03 9.45,73.5 10.36,73.18C10.52,73.12 26.75,67.5 43.53,73.61C49.73,75.86 55.3,76.98 60.16,76.98C66.66,76.98 71.89,74.96 75.6,70.95C76.25,70.24 76.21,69.13 75.5,68.47C74.79,67.82 73.68,67.86 73.02,68.57"></path>
	<path class="st0" d="M40.46,33.17C38.97,33.17 37.75,34.39 37.75,35.89C37.75,37.38 38.97,38.6 40.46,38.6C41.96,38.6 43.17,37.38 43.17,35.89C43.17,34.39 41.96,33.17 40.46,33.17"></path>
</svg>
